X:1
T:Krigarens dröm
T:Krigarens dröm
T:Johann Peter Cronhamn
C:Johann Peter Cronhamn
%%score [ 1 2 3 4 ]
L:1/8
Q:1/4=94
M:4/4
K:F
V:1 treble nm="Soprano"
V:2 treble nm="Alto"
V:3 treble-8 nm="Tenor"
V:4 bass nm="Bass"
V:1
"^Moderato" A4 G4 | F3/2 G/ A3/2 B/ c3/2 d/ c2 | B6 c2 | A4 z4 |: d2 B2 B2 d2 | %5
w: Kri- garn|hvi- lar sig i mark och skog|Of- ta|nog.|Klip- pan är hans|
 d3/2 c/ c3/2 B/ A2 z2 | B2 G2 G2 B2 | A3/2 B/ c3/2 d/ c2 z2 |!f! f4 d4 | c3/2 B/ A3/2 B/ c2 z2 | %10
w: hår- da huf- vud- gärd,|Säng- kam- ra- ten|är det go- da svärd.|Kri- garn|hvi- lar sig i skog,|
!p! B6 c2 | A4 z4 :| %12
w: Of- ta|nog.|
V:2
 F4 C4 | A,3/2 C/ F3/2 G/ A3/2 B/ A2 | G6 E2 | F4 z4 |: F2 D2 D2 F2 | F3/2 F/ F3/2 F/ F2 z2 | %6
w: Kri- garn|hvi- lar sig i mark och skog|Of- ta|nog.|Klip- pan är hans|hår- da huf- vud- gärd,|
 E2 E2 E2 E2 | F3/2 F/ F3/2 F/ F2 z2 |!f! B4 B4 | A3/2 G/ F3/2 G/ A2 z2 |!p! G6 E2 | F4 z4 :| %12
w: Säng- kam- ra- ten|är det go- da svärd.|Kri- garn|hvi- lar sig i skog,|Of- ta|nog.|
V:3
 z8 | z8 | c6 c2 | c4 z4 |: B2 B2 B2 B2 | B3/2 A/ A3/2 G/ F2 z2 | c2 c2 c2 c2 | %7
w: ||Of- ta|nog.|Klip- pan är hans|hår- da huf- vud- gärd,|Säng- kam- ra- ten|
 c3/2 c/ c3/2 c/ c2 z2 |!f! d4 f4 | f3/2 f/ f3/2 f/ f2 z2 |!p! c6 c2 | c4 z4 :| %12
w: är det go- da svärd.|Kri- garn|hvi- lar sig i skog,|Of- ta|nog.|
V:4
 z8 | z8 | (C,>D,) E,3/2 F,/ G,2 C,2 | F,4 z4 |: B,,2 B,,2 B,,2 B,,2 | F,3/2 F,/ F,3/2 F,/ F,2 z2 | %6
w: ||hvi- * lar sig of- ta|nog.|Klip- pan är hans|hår- da huf- vud- gärd,|
 C,2 C,2 C,2 C,2 | F,3/2 G,/ A,3/2 B,/ A,2 z2 |!f! B,4 B,4 | F,3/2 F,/ F,3/2 F,/ F,2 z2 | %10
w: Säng- kam- ra- ten|är det go- da svärd.|Kri- garn|hvi- lar sig i skog,|
!p! (C,>D,) E,3/2 F,/ G,2 C,2 | F,4 z4 :| %12
w: hvi- * lar sig of- ta|nog.|

